build/img/logotype-mobile.svg

<svg width="100" height="39" viewBox="0 0 100 39" fill="none" xmlns="http://www.w3.org/2000/svg">
<path d="M43.9016 24.7032H42.1475V17.0402H43.7965V18.2931C44.1467 17.7596 44.5428 17.3716 44.9847 17.1291C45.432 16.8812 45.9574 16.7573 46.561 16.7573C47.1592 16.7573 47.6549 16.8839 48.0483 17.1372C48.4417 17.3851 48.7408 17.765 48.9456 18.277C49.3497 17.7488 49.7782 17.3635 50.2308 17.121C50.6889 16.8785 51.2089 16.7573 51.7909 16.7573C52.2975 16.7573 52.7394 16.8516 53.1166 17.0402C53.4938 17.2234 53.7875 17.4929 53.9977 17.8485C54.0947 18.0156 54.1647 18.215 54.2078 18.4467C54.2563 18.6784 54.2806 19.0099 54.2806 19.441V24.7032H52.5265V20.7666C52.5265 19.7374 52.416 19.061 52.1951 18.7377C51.9795 18.409 51.5915 18.2446 51.0311 18.2446C50.3413 18.2446 49.8482 18.4656 49.5518 18.9075C49.2608 19.344 49.1153 20.1119 49.1153 21.2112V24.7032H47.3451V20.7666C47.3451 19.8182 47.2292 19.1607 46.9975 18.7943C46.7711 18.4278 46.3778 18.2446 45.8173 18.2446C45.4724 18.2446 45.1572 18.3228 44.8716 18.479C44.5859 18.6353 44.3596 18.8509 44.1926 19.1257C44.0848 19.3035 44.0093 19.5218 43.9662 19.7805C43.9231 20.0391 43.9016 20.5161 43.9016 21.2112V24.7032Z" fill="white"/>
<path d="M63.8432 24.7032H62.0891V23.709C61.7766 24.1509 61.4101 24.4796 60.9898 24.6952C60.5749 24.9107 60.0979 25.0185 59.559 25.0185C58.4759 25.0185 57.6217 24.6493 56.9966 23.9111C56.3769 23.1674 56.067 22.1516 56.067 20.8636C56.067 19.6404 56.385 18.6542 57.0209 17.9051C57.6568 17.1507 58.4866 16.7735 59.5105 16.7735C60.1357 16.7735 60.6692 16.9055 61.111 17.1695C61.5583 17.4282 61.8844 17.8027 62.0891 18.2931V17.0402H63.8432V24.7032ZM62.1376 20.8475C62.1376 20.0553 61.9517 19.4383 61.5799 18.9964C61.2134 18.5545 60.6988 18.3335 60.036 18.3335C59.3731 18.3335 58.8504 18.5626 58.4678 19.0206C58.0906 19.4733 57.9019 20.1038 57.9019 20.9121C57.9019 21.7259 58.0852 22.3537 58.4516 22.7956C58.8181 23.2375 59.3354 23.4584 60.0036 23.4584C60.6341 23.4584 61.1461 23.2186 61.5395 22.739C61.9382 22.2594 62.1376 21.6289 62.1376 20.8475Z" fill="white"/>
<path d="M71.773 20.8475C71.773 20.0553 71.5871 19.4383 71.2153 18.9964C70.8488 18.5545 70.3342 18.3335 69.6713 18.3335C69.0085 18.3335 68.4858 18.5626 68.1032 19.0206C67.7259 19.4733 67.5373 20.1038 67.5373 20.9121C67.5373 21.7259 67.7206 22.3537 68.087 22.7956C68.4534 23.2375 68.9708 23.4584 69.639 23.4584C70.2695 23.4584 70.7815 23.2186 71.1748 22.739C71.5736 22.2594 71.773 21.6289 71.773 20.8475ZM73.4786 24.2263C73.4786 25.7244 73.1795 26.778 72.5814 27.3869C71.9832 28.0013 70.9755 28.3084 69.5582 28.3084C68.5019 28.3084 67.6586 28.0848 67.0281 27.6375C66.3976 27.1956 66.0769 26.6055 66.0662 25.8672L67.9496 25.8592C67.9765 26.1879 68.1301 26.4385 68.4103 26.6109C68.6906 26.7834 69.0839 26.8696 69.5905 26.8696C70.3396 26.8696 70.8785 26.7052 71.2072 26.3765C71.5359 26.0478 71.703 25.4981 71.7083 24.7275L71.7245 23.709C71.412 24.1509 71.0455 24.4796 70.6252 24.6952C70.2102 24.9107 69.7333 25.0185 69.1944 25.0185C68.1112 25.0185 67.2571 24.6493 66.632 23.9111C66.0123 23.1674 65.7024 22.1516 65.7024 20.8636C65.7024 19.6404 66.0203 18.6542 66.6562 17.9051C67.2921 17.1507 68.122 16.7735 69.1459 16.7735C69.771 16.7735 70.3045 16.9055 70.7464 17.1695C71.1937 17.4282 71.5197 17.8027 71.7245 18.2931V17.0402H73.4786V24.2263Z" fill="white"/>
<path d="M83.2352 25.164L81.465 21.1789C81.3303 20.8717 81.2198 20.5996 81.1336 20.3625C81.0473 20.12 80.9692 19.8829 80.8991 19.6511C80.7806 20.0014 80.6755 20.3032 80.5839 20.5565C80.4923 20.8044 80.4195 20.9903 80.3656 21.1142L78.5469 25.164L74.5779 17.0402H76.4452L78.167 20.7343C78.237 20.8906 78.3044 21.1061 78.369 21.381C78.4391 21.6504 78.4984 21.9495 78.5469 22.2782C78.5523 22.0842 78.5846 21.8821 78.6439 21.672C78.7032 21.4618 78.8029 21.2031 78.943 20.896L80.8183 16.7573H80.9638L82.8715 20.896C82.99 21.1546 83.0763 21.3944 83.1301 21.6154C83.1894 21.8363 83.2245 22.0573 83.2352 22.2782C83.2837 21.9872 83.3457 21.7124 83.4212 21.4537C83.4966 21.1951 83.5828 20.9606 83.6798 20.7505L85.3692 17.0402H87.2203L83.2352 25.164Z" fill="white"/>
<path d="M95.53 24.7032H93.7759V23.709C93.4634 24.1509 93.0969 24.4796 92.6766 24.6952C92.2617 24.9107 91.7847 25.0185 91.2459 25.0185C90.1627 25.0185 89.3085 24.6493 88.6834 23.9111C88.0637 23.1674 87.7538 22.1516 87.7538 20.8636C87.7538 19.6404 88.0718 18.6542 88.7077 17.9051C89.3436 17.1507 90.1735 16.7735 91.1974 16.7735C91.8225 16.7735 92.356 16.9055 92.7979 17.1695C93.2451 17.4282 93.5712 17.8027 93.7759 18.2931V17.0402H95.53V24.7032ZM93.8244 20.8475C93.8244 20.0553 93.6385 19.4383 93.2667 18.9964C92.9002 18.5545 92.3856 18.3335 91.7228 18.3335C91.0599 18.3335 90.5372 18.5626 90.1546 19.0206C89.7774 19.4733 89.5888 20.1038 89.5888 20.9121C89.5888 21.7259 89.772 22.3537 90.1384 22.7956C90.5049 23.2375 91.0222 23.4584 91.6904 23.4584C92.3209 23.4584 92.8329 23.2186 93.2263 22.739C93.6251 22.2594 93.8244 21.6289 93.8244 20.8475Z" fill="white"/>
<path d="M97.8015 13.726C97.8015 13.4296 97.9092 13.1737 98.1248 12.9581C98.3457 12.7425 98.6071 12.6348 98.9089 12.6348C99.2214 12.6348 99.4801 12.7398 99.6849 12.95C99.8951 13.1548 100 13.4135 100 13.726C100 14.0386 99.8951 14.3026 99.6849 14.5182C99.4747 14.7284 99.2161 14.8334 98.9089 14.8334C98.6071 14.8334 98.3457 14.7257 98.1248 14.5101C97.9092 14.2892 97.8015 14.0278 97.8015 13.726ZM98.0359 24.7032V17.0402H99.79V24.7032H98.0359Z" fill="white"/>
<path d="M11.8932 7.5354C11.8932 7.5354 7.00499 7.57087 6.55574 7.62362C5.6921 7.72251 3.77394 8.14553 2.98434 9.7284C1.90887 11.885 3.93361 14.9404 3.93361 14.9404L6.4792 19.0102" stroke="#BFECFF" stroke-width="1.5" stroke-linecap="round"/>
<path d="M9.0712 30.8111C9.70527 30.4148 9.89802 29.5795 9.50173 28.9454C9.10544 28.3114 8.27017 28.1186 7.6361 28.5149L6.87057 28.9934C6.2365 29.3897 6.04375 30.2249 6.44004 30.859C6.83633 31.4931 7.6716 31.6858 8.30567 31.2895L9.0712 30.8111Z" fill="white"/>
<path d="M14.7475 20.1675C15.3815 19.7712 15.5743 18.936 15.178 18.3019C14.7817 17.6678 13.9464 17.4751 13.3124 17.8714L5.91281 22.4961C5.27874 22.8924 5.08598 23.7276 5.48228 24.3617C5.87857 24.9958 6.71384 25.1885 7.34791 24.7922L14.7475 20.1675Z" fill="white"/>
<path d="M17.4037 25.604C18.0378 25.2077 18.2305 24.3725 17.8342 23.7384C17.438 23.1043 16.6027 22.9116 15.9686 23.3079L11.7404 25.9505C11.1064 26.3468 10.9136 27.1821 11.3099 27.8161C11.7062 28.4502 12.5415 28.643 13.1755 28.2467L17.4037 25.604Z" fill="white"/>
<path d="M32.9908 18.7025C33.484 18.3942 33.6339 17.7446 33.3257 17.2514C33.0175 16.7582 32.3678 16.6083 31.8746 16.9165C31.3814 17.2247 31.2315 17.8744 31.5397 18.3676C31.848 18.8608 32.4976 19.0107 32.9908 18.7025Z" fill="white"/>
<path fill-rule="evenodd" clip-rule="evenodd" d="M26.8677 22.6473C26.1169 24.1668 25.2566 25.9116 24.485 27.4765C23.4037 29.6695 22.4966 31.5092 22.309 31.8805C21.5926 33.3044 20.8954 33.7847 20.0541 33.7016C19.4024 33.6429 18.5425 32.8235 18.4854 31.1918C18.4283 29.5602 18.2324 25.0913 14.7988 27.2367C14.7399 27.1424 14.7111 26.9965 14.6799 26.8387C14.6432 26.6528 14.6033 26.4505 14.5071 26.2965C13.7062 25.015 10.411 19.6891 10.6501 19.5396C10.8892 19.3902 11.9936 18.3656 11.3004 17.1882C10.7038 16.1748 9.72742 15.5953 8.67133 14.9684C8.50054 14.8671 8.32766 14.7645 8.15397 14.6586C6.55096 13.6302 6.17932 12.8345 6.5543 11.7692C7.02996 10.7654 8.59783 10.7684 9.23986 10.7892C9.86861 10.8102 14.6682 10.8351 19.4764 10.8427L16.3439 19.4349C16.1801 19.9392 16.1974 20.4848 16.393 20.9776C16.7438 21.4083 17.2462 21.6883 17.7971 21.76L26.8658 22.6454C26.8664 22.6461 26.8671 22.6467 26.8677 22.6473ZM23.1065 10.8449C22.9676 10.8725 22.8328 10.922 22.7074 10.9923C22.4366 11.1443 22.226 11.3845 22.1109 11.6729C21.0082 14.1887 20.7001 14.9899 20.2616 16.13C20.1627 16.3869 20.0573 16.6611 19.9346 16.976C19.9173 17.0265 19.8959 17.0863 19.8719 17.1534C19.6833 17.6802 19.3353 18.6525 19.5766 19.0385C19.7838 19.3701 20.2491 19.4175 21.134 19.5076C21.2617 19.5206 21.398 19.5345 21.5436 19.5502C23.9627 19.8093 27.381 20.1052 27.381 20.1052C27.6849 20.0761 27.9736 19.9583 28.2111 19.7664C28.2669 19.7213 28.3193 19.6726 28.368 19.6207C28.4571 19.4422 28.5354 19.2859 28.6013 19.1549L30.8941 14.591C30.9018 14.5758 30.9098 14.5599 30.9181 14.5434C31.3858 13.6151 32.8187 10.7707 28.5386 10.8221C27.3135 10.8369 25.3379 10.8436 23.1065 10.8449Z" fill="white"/>
<path d="M34.8013 14.1406C34.8013 14.1406 36.3778 11.671 35.1199 9.61551C33.862 7.55998 30.2775 7.52905 30.2775 7.52905L16.9495 7.60056" stroke="#FE60B7" stroke-width="1.5" stroke-linecap="round"/>
<path d="M13.9453 31.1632C13.9453 31.1632 16.5751 35.3968 16.7051 35.5792C17.0654 36.0881 18.5826 37.9864 20.6148 37.7921C23.0137 37.5623 24.5332 34.2269 24.5332 34.2269L30.8445 21.591" stroke="#A072FD" stroke-width="1.5" stroke-linecap="round"/>
</svg>

<svg width="100" height="39" fill="none" xmlns="http://www.w3.org/2000/svg"><path d="M43.902 24.703h-1.755V17.04h1.65v1.253c.35-.533.746-.921 1.188-1.164.447-.248.972-.372 1.576-.372.598 0 1.094.127 1.487.38.394.248.693.628.898 1.14.404-.528.832-.914 1.285-1.156a3.288 3.288 0 011.56-.364c.507 0 .948.095 1.326.283.377.183.67.453.88.809.098.167.168.366.21.598.05.231.074.563.074.994v5.262h-1.755v-3.936c0-1.03-.11-1.706-.33-2.03-.216-.328-.604-.492-1.165-.492-.69 0-1.183.22-1.48.662-.29.437-.436 1.205-.436 2.304v3.492h-1.77v-3.936c0-.949-.116-1.606-.347-1.973-.227-.366-.62-.55-1.18-.55-.346 0-.66.079-.946.235a1.78 1.78 0 00-.68.647 1.837 1.837 0 00-.226.654c-.043.26-.064.736-.064 1.431v3.492zm19.941 0H62.09v-.994c-.312.442-.679.77-1.1.986-.414.216-.891.323-1.43.323-1.083 0-1.937-.369-2.562-1.107-.62-.744-.93-1.76-.93-3.047 0-1.224.318-2.21.954-2.959.636-.754 1.466-1.132 2.49-1.132.625 0 1.158.133 1.6.396.447.26.773.634.978 1.124V17.04h1.754v7.663zm-1.705-3.855c0-.793-.186-1.41-.558-1.852-.367-.441-.881-.662-1.544-.662s-1.186.229-1.568.687c-.377.452-.566 1.083-.566 1.891 0 .814.183 1.442.55 1.884.366.442.883.662 1.552.662.63 0 1.142-.24 1.535-.719.4-.48.599-1.11.599-1.892zm9.635 0c0-.793-.186-1.41-.558-1.852-.366-.441-.88-.662-1.544-.662-.663 0-1.185.229-1.568.687-.377.452-.566 1.083-.566 1.891 0 .814.184 1.442.55 1.884.366.442.884.662 1.552.662.63 0 1.142-.24 1.536-.719.399-.48.598-1.11.598-1.892zm1.706 3.378c0 1.498-.3 2.552-.898 3.16-.598.615-1.606.922-3.023.922-1.056 0-1.9-.223-2.53-.67-.63-.442-.951-1.033-.962-1.77l1.884-.009c.026.329.18.58.46.752.28.172.674.259 1.18.259.75 0 1.288-.165 1.617-.494.329-.328.496-.878.501-1.649l.017-1.018c-.313.442-.68.77-1.1.986-.415.216-.892.323-1.43.323-1.084 0-1.938-.369-2.563-1.107-.62-.744-.93-1.76-.93-3.047 0-1.224.318-2.21.954-2.959.636-.754 1.466-1.132 2.49-1.132.625 0 1.159.133 1.6.396.448.26.774.634.979 1.124V17.04h1.754v7.186zm9.756.938l-1.77-3.985c-.135-.307-.245-.58-.331-.816-.087-.243-.165-.48-.235-.712-.118.35-.224.652-.315.905a11.54 11.54 0 01-.218.558l-1.82 4.05-3.968-8.124h1.867l1.722 3.694c.07.157.137.372.202.647.07.27.13.569.178.897a2.48 2.48 0 01.097-.606c.06-.21.159-.469.299-.776l1.875-4.139h.146l1.907 4.139c.119.259.205.498.26.72.058.22.094.441.104.662.049-.29.11-.566.186-.824a5.17 5.17 0 01.259-.704l1.69-3.71h1.85l-3.985 8.124zm12.295-.461h-1.754v-.994c-.313.442-.68.77-1.1.986-.414.216-.891.323-1.43.323-1.083 0-1.938-.369-2.563-1.107-.62-.744-.93-1.76-.93-3.047 0-1.224.319-2.21.955-2.959.636-.754 1.466-1.132 2.49-1.132.625 0 1.158.133 1.6.396.447.26.773.634.978 1.124V17.04h1.754v7.663zm-1.706-3.855c0-.793-.186-1.41-.557-1.852-.367-.441-.881-.662-1.544-.662s-1.186.229-1.568.687c-.378.452-.566 1.083-.566 1.891 0 .814.183 1.442.55 1.884.366.442.883.662 1.551.662.63 0 1.143-.24 1.536-.719.4-.48.598-1.11.598-1.892zm3.978-7.122c0-.296.107-.552.323-.768.22-.216.482-.323.784-.323.312 0 .571.105.776.315.21.205.315.464.315.776 0 .313-.105.577-.315.792-.21.21-.469.315-.776.315-.302 0-.563-.107-.784-.323a1.085 1.085 0 01-.323-.784zm.234 10.977V17.04h1.754v7.663h-1.754z" fill="#fff"/><path d="M11.893 7.535s-4.888.036-5.337.089c-.864.099-2.782.522-3.572 2.104-1.075 2.157.95 5.212.95 5.212l2.545 4.07" stroke="#BFECFF" stroke-width="1.5" stroke-linecap="round"/><path d="M9.071 30.811a1.354 1.354 0 00-1.435-2.296l-.765.478a1.354 1.354 0 101.435 2.297l.765-.479zm5.677-10.643a1.354 1.354 0 00-1.436-2.297l-7.4 4.625a1.354 1.354 0 101.436 2.296l7.4-4.625zm2.656 5.436a1.354 1.354 0 10-1.435-2.296L11.74 25.95a1.354 1.354 0 001.435 2.296l4.229-2.643zm15.586-6.901a1.053 1.053 0 10-1.115-1.787 1.053 1.053 0 001.116 1.787z" fill="#fff"/><path fill-rule="evenodd" clip-rule="evenodd" d="M26.868 22.647l-2.383 4.83a1268.233 1268.233 0 01-2.176 4.404c-.716 1.423-1.414 1.904-2.255 1.82-.652-.058-1.511-.877-1.569-2.51-.057-1.63-.253-6.1-3.686-3.954-.06-.095-.088-.24-.12-.398-.036-.186-.076-.388-.172-.542-.8-1.282-4.096-6.608-3.857-6.757.24-.15 1.344-1.174.65-2.352-.596-1.013-1.573-1.593-2.629-2.22-.17-.1-.343-.204-.517-.31-1.603-1.028-1.975-1.823-1.6-2.889.476-1.004 2.044-1 2.686-.98.629.021 5.428.046 10.236.054l-3.132 8.592a2.276 2.276 0 00.049 1.543c.35.43.853.71 1.404.782l9.069.885.002.002zm-3.761-11.802a1.357 1.357 0 00-.996.828c-1.103 2.516-1.41 3.317-1.85 4.457l-.326.846-.063.177c-.189.527-.537 1.5-.295 1.886.207.331.672.378 1.557.469l.41.042c2.419.26 5.837.555 5.837.555a1.557 1.557 0 00.987-.484l.233-.466 2.293-4.564.024-.048c.468-.928 1.9-3.772-2.38-3.72-1.224.014-3.2.02-5.431.022z" fill="#fff"/><path d="M34.801 14.14s1.577-2.469.319-4.524c-1.258-2.056-4.842-2.087-4.842-2.087l-13.328.072" stroke="#FE60B7" stroke-width="1.5" stroke-linecap="round"/><path d="M13.945 31.163s2.63 4.234 2.76 4.416c.36.51 1.878 2.407 3.91 2.213 2.399-.23 3.918-3.565 3.918-3.565l6.311-12.636" stroke="#A072FD" stroke-width="1.5" stroke-linecap="round"/></svg>
